collectives/static/img/icon/ionicon/md-clock.svg

<svg enable-background="new 0 0 512 512" viewBox="0 0 512 512" xmlns="http://www.w3.org/2000/svg"><path d="m403.1 108.9c-81.2-81.2-212.9-81.2-294.2 0s-81.2 212.9 0 294.2c81.2 81.2 212.9 81.2 294.2 0 81.2-81.2 81.2-213 0-294.2zm-16.5 53.2c7.6-4.4 17.5-1.8 21.9 5.9 4.4 7.6 1.8 17.5-5.9 21.9-7.6 4.4-17.5 1.8-21.9-5.9-4.4-7.6-1.8-17.5 5.9-21.9zm-306.6 93.9c0-8.8 7.2-16 16-16s16 7.2 16 16-7.2 16-16 16-16-7.2-16-16zm45.4 93.9c-7.6 4.4-17.5 1.8-21.9-5.9-4.4-7.6-1.8-17.5 5.9-21.9 7.6-4.4 17.5-1.8 21.9 5.9 4.4 7.6 1.8 17.5-5.9 21.9zm5.9-165.9c-4.4 7.6-14.2 10.3-21.9 5.9-7.6-4.4-10.3-14.2-5.9-21.9 4.4-7.6 14.2-10.3 21.9-5.9s10.3 14.3 5.9 21.9zm36.7-80.4c7.6-4.4 17.5-1.8 21.9 5.9 4.4 7.6 1.8 17.5-5.9 21.9s-17.5 1.8-21.9-5.9-1.7-17.5 5.9-21.9zm-7.8 110.7 15.6-26.6 95.2 56.9v139.4h-31v-123.4zm29.7 188.3c-4.4 7.6-14.2 10.3-21.9 5.9s-10.3-14.2-5.9-21.9c4.4-7.6 14.2-10.3 21.9-5.9 7.6 4.4 10.3 14.2 5.9 21.9zm66.1 29.4c-8.8 0-16-7.2-16-16s7.2-16 16-16 16 7.2 16 16-7.2 16-16 16zm0-320c-8.8 0-16-7.2-16-16s7.2-16 16-16 16 7.2 16 16-7.2 16-16 16zm88 296.4c-7.6 4.4-17.5 1.8-21.9-5.9-4.4-7.6-1.8-17.5 5.9-21.9 7.6-4.4 17.5-1.8 21.9 5.9s1.7 17.5-5.9 21.9zm5.9-283c-4.4 7.6-14.2 10.3-21.9 5.9s-10.3-14.2-5.9-21.9c4.4-7.6 14.2-10.3 21.9-5.9s10.3 14.3 5.9 21.9zm58.5 218.6c-4.4 7.6-14.2 10.3-21.9 5.9-7.6-4.4-10.3-14.2-5.9-21.9 4.4-7.6 14.2-10.3 21.9-5.9s10.3 14.3 5.9 21.9zm7.6-72c-8.8 0-16-7.2-16-16s7.2-16 16-16 16 7.2 16 16-7.2 16-16 16z"/></svg>

<?xml version="1.0" encoding="utf-8"?>
<!-- Generator: Adobe Illustrator 18.1.1, SVG Export Plug-In . SVG Version: 6.00 Build 0)  -->
<svg version="1.1" id="Layer_1" xmlns="http://www.w3.org/2000/svg" xmlns:xlink="http://www.w3.org/1999/xlink" x="0px" y="0px"
	 viewBox="0 0 512 512" enable-background="new 0 0 512 512" xml:space="preserve">
<g>
	<path d="M403.1,108.9c-81.2-81.2-212.9-81.2-294.2,0c-81.3,81.2-81.2,212.9,0,294.2c81.2,81.2,212.9,81.2,294.2,0
		C484.3,321.9,484.3,190.1,403.1,108.9z M386.6,162.1c7.6-4.4,17.5-1.8,21.9,5.9c4.4,7.6,1.8,17.5-5.9,21.9
		c-7.6,4.4-17.5,1.8-21.9-5.9C376.3,176.4,378.9,166.5,386.6,162.1z M80,256c0-8.8,7.2-16,16-16s16,7.2,16,16s-7.2,16-16,16
		S80,264.8,80,256z M125.4,349.9c-7.6,4.4-17.5,1.8-21.9-5.9c-4.4-7.6-1.8-17.5,5.9-21.9c7.6-4.4,17.5-1.8,21.9,5.9
		C135.7,335.6,133.1,345.5,125.4,349.9z M131.3,184c-4.4,7.6-14.2,10.3-21.9,5.9c-7.6-4.4-10.3-14.2-5.9-21.9
		c4.4-7.6,14.2-10.3,21.9-5.9C133.1,166.5,135.7,176.4,131.3,184z M168,103.6c7.6-4.4,17.5-1.8,21.9,5.9c4.4,7.6,1.8,17.5-5.9,21.9
		s-17.5,1.8-21.9-5.9C157.7,117.8,160.4,108,168,103.6z M160.2,214.3l15.6-26.6l95.2,56.9V384h-31V260.6L160.2,214.3z M189.9,402.6
		c-4.4,7.6-14.2,10.3-21.9,5.9s-10.3-14.2-5.9-21.9c4.4-7.6,14.2-10.3,21.9-5.9C191.6,385.1,194.3,394.9,189.9,402.6z M256,432
		c-8.8,0-16-7.2-16-16s7.2-16,16-16s16,7.2,16,16S264.8,432,256,432z M256,112c-8.8,0-16-7.2-16-16c0-8.8,7.2-16,16-16s16,7.2,16,16
		C272,104.8,264.8,112,256,112z M344,408.4c-7.6,4.4-17.5,1.8-21.9-5.9c-4.4-7.6-1.8-17.5,5.9-21.9c7.6-4.4,17.5-1.8,21.9,5.9
		C354.3,394.2,351.6,404,344,408.4z M349.9,125.4c-4.4,7.6-14.2,10.3-21.9,5.9s-10.3-14.2-5.9-21.9c4.4-7.6,14.2-10.3,21.9-5.9
		S354.3,117.8,349.9,125.4z M408.4,344c-4.4,7.6-14.2,10.3-21.9,5.9c-7.6-4.4-10.3-14.2-5.9-21.9c4.4-7.6,14.2-10.3,21.9-5.9
		C410.2,326.5,412.8,336.4,408.4,344z M416,272c-8.8,0-16-7.2-16-16s7.2-16,16-16c8.8,0,16,7.2,16,16S424.8,272,416,272z"/>
</g>
</svg>
